flaticon/online-marketing/devices.svg

<svg xmlns="http://www.w3.org/2000/svg" width="32" height="32" viewBox="0 0 24 24">
    <path d="M 23.046875 8.761719 L 23.046875 2.929688 C 23.046875 1.992188 22.285156 1.234375 21.351562 1.234375 L 1.695312 1.234375 C 0.761719 1.234375 0 1.992188 0 2.929688 L 0 14.8125 C 0 15.746094 0.761719 16.507812 1.695312 16.507812 L 7.265625 16.507812 L 6.628906 17.191406 L 5.671875 17.191406 C 5.453125 17.191406 5.277344 17.367188 5.277344 17.585938 C 5.277344 17.804688 5.453125 17.980469 5.671875 17.980469 L 11.144531 17.980469 L 11.144531 21.773438 C 11.144531 22.320312 11.589844 22.765625 12.136719 22.765625 L 16.367188 22.765625 C 16.914062 22.765625 17.359375 22.320312 17.359375 21.773438 L 17.359375 20.972656 L 22.652344 20.972656 C 23.394531 20.972656 24 20.367188 24 19.625 L 24 10.050781 C 24 9.445312 23.597656 8.929688 23.046875 8.761719 Z M 23.214844 10.050781 L 23.214844 10.15625 L 14.167969 10.15625 L 14.167969 10.050781 C 14.167969 9.742188 14.421875 9.488281 14.730469 9.488281 L 22.652344 9.488281 C 22.960938 9.488281 23.214844 9.742188 23.214844 10.050781 Z M 16.367188 13.375 L 14.167969 13.375 L 14.167969 10.945312 L 23.214844 10.945312 L 23.214844 18.730469 L 17.359375 18.730469 L 17.359375 14.367188 C 17.359375 13.820312 16.914062 13.375 16.367188 13.375 Z M 16.574219 14.882812 L 11.929688 14.882812 L 11.929688 14.367188 C 11.929688 14.253906 12.023438 14.160156 12.136719 14.160156 L 16.367188 14.160156 C 16.480469 14.160156 16.574219 14.253906 16.574219 14.367188 Z M 22.257812 3.320312 L 22.257812 8.703125 L 14.730469 8.703125 C 13.984375 8.703125 13.382812 9.308594 13.382812 10.050781 L 13.382812 13.375 L 12.136719 13.375 C 11.589844 13.375 11.144531 13.820312 11.144531 14.367188 L 0.785156 14.367188 L 0.785156 3.320312 Z M 11.929688 15.671875 L 16.574219 15.671875 L 16.574219 20.46875 L 11.929688 20.46875 Z M 1.695312 2.019531 L 21.351562 2.019531 C 21.710938 2.019531 22.019531 2.230469 22.167969 2.535156 L 0.878906 2.535156 C 1.023438 2.230469 1.335938 2.019531 1.695312 2.019531 Z M 0.851562 15.152344 L 11.144531 15.152344 L 11.144531 15.71875 L 1.695312 15.71875 C 1.3125 15.71875 0.988281 15.484375 0.851562 15.152344 Z M 7.699219 17.191406 L 8.339844 16.507812 L 11.144531 16.507812 L 11.144531 17.191406 Z M 16.367188 21.980469 L 12.136719 21.980469 C 12.023438 21.980469 11.929688 21.886719 11.929688 21.773438 L 11.929688 21.253906 L 16.574219 21.253906 L 16.574219 21.773438 C 16.574219 21.886719 16.480469 21.980469 16.367188 21.980469 Z M 22.652344 20.1875 L 17.359375 20.1875 L 17.359375 19.519531 L 23.214844 19.519531 L 23.214844 19.625 C 23.214844 19.933594 22.960938 20.1875 22.652344 20.1875 Z M 22.652344 20.1875"/>
</svg>

<svg xmlns="http://www.w3.org/2000/svg" width="32" height="32" viewBox="0 0 24 24">
    <path d="M23.047 8.762V2.93c0-.938-.762-1.696-1.695-1.696H1.695C.762 1.234 0 1.992 0 2.93v11.883c0 .933.762 1.695 1.695 1.695h5.57l-.636.683h-.957a.393.393 0 0 0-.395.395c0 .219.176.394.395.394h5.473v3.793c0 .547.445.993.992.993h4.23a.994.994 0 0 0 .992-.993v-.8h5.293A1.35 1.35 0 0 0 24 19.625v-9.574a1.35 1.35 0 0 0-.953-1.29zm.168 1.289v.105h-9.047v-.105c0-.309.254-.563.562-.563h7.922c.309 0 .563.254.563.563zm-6.848 3.324h-2.199v-2.43h9.047v7.785h-5.856v-4.363a.994.994 0 0 0-.992-.992zm.207 1.508H11.93v-.516c0-.113.093-.207.207-.207h4.23c.113 0 .207.094.207.207zM22.258 3.32v5.383H14.73c-.746 0-1.347.606-1.347 1.348v3.324h-1.246a.994.994 0 0 0-.992.992H.785V3.32zM11.93 15.672h4.644v4.797H11.93zM1.695 2.02h19.657c.359 0 .668.21.816.515H.878a.904.904 0 0 1 .817-.515zM.852 15.152h10.293v.567h-9.45a.911.911 0 0 1-.843-.567zm6.847 2.04l.64-.684h2.806v.683zm8.668 4.788h-4.23a.208.208 0 0 1-.207-.207v-.52h4.644v.52a.208.208 0 0 1-.207.207zm6.285-1.793H17.36v-.667h5.856v.105a.565.565 0 0 1-.563.563zm0 0"/>
</svg>
